svgs/regular/staff-snake.svg

<svg xmlns="http://www.w3.org/2000/svg" viewBox="0 0 384 512"><!--! Font Awesome Pro 6.2.0 by @fontawesome - https://fontawesome.com License - https://fontawesome.com/license (Commercial License) Copyright 2022 Fonticons, Inc. --><path d="M222.5 48H296C344.6 48 384 87.4 384 136C384 184.6 344.6 224 296 224H248V176H296C318.1 176 336 158.1 336 136C336 113.9 318.1 96 296 96H220.1L214.1 288H240C284.2 288 320 323.8 320 368C320 412.2 284.2 448 240 448V400C257.7 400 272 385.7 272 368C272 350.3 257.7 336 240 336H213.5L208.5 496C208.2 504.9 200.9 512 191.1 512C183.1 512 175.8 504.9 175.5 496L173.1 448H119.1C106.7 448 95.1 437.3 95.1 424C95.1 410.7 106.7 400 119.1 400H172.5L170.5 336H144C99.82 336 64 300.2 64 256C64 214.5 95.57 180.4 136 176.4V225C122.2 228.6 112 241.1 112 256C112 273.7 126.3 288 144 288H169L163 96H127.4C127.8 98.61 128 101.3 128 104C128 134.9 102.9 160 72 160H56C25.07 160 0 134.9 0 104C0 73.07 25.07 48 56 48H161.5L160.1 31.98C160.1 31.33 160.1 30.69 160.1 30.05C161.5 13.43 175.1 0 192 0C208.9 0 222.5 13.43 223 30.05C223 30.69 223 31.33 223 31.98L222.5 48zM79.1 96C79.1 87.16 72.84 80 63.1 80C55.16 80 47.1 87.16 47.1 96C47.1 104.8 55.16 112 63.1 112C72.84 112 79.1 104.8 79.1 96z"/></svg>

<svg xmlns="http://www.w3.org/2000/svg" viewBox="0 0 384 512"><!--! Font Awesome Pro 6.3.0 by @fontawesome - https://fontawesome.com License - https://fontawesome.com/license (Commercial License) Copyright 2023 Fonticons, Inc. --><path d="M222.6 43.2l-.2 4.8H296c48.6 0 88 39.4 88 88s-39.4 88-88 88H248V176h48c22.1 0 40-17.9 40-40s-17.9-40-40-40H221l-6 192h25c44.2 0 80 35.8 80 80s-35.8 80-80 80V400c17.7 0 32-14.3 32-32s-14.3-32-32-32H213.5l-3.6 115.5L208.5 495l0 1c-.3 8.9-7.6 16-16.5 16s-16.2-7.1-16.5-16l0-1-1.4-43.5L174 448H120c-13.3 0-24-10.7-24-24s10.7-24 24-24h52.5l-2-64H144c-44.2 0-80-35.8-80-80c0-41.5 31.6-75.6 72-79.6V225c-13.8 3.6-24 16.1-24 31c0 17.7 14.3 32 32 32h25L163 96H127.4c.4 2.6 .6 5.3 .6 8c0 30.9-25.1 56-56 56H56c-30.9 0-56-25.1-56-56S25.1 48 56 48h8 8 89.5l-.1-4.8L161 32c0-.7 0-1.3 0-1.9c.5-16.6 14.1-30 31-30s30.5 13.4 31 30c0 .6 0 1.3 0 1.9l-.4 11.2zM64 112a16 16 0 1 0 0-32 16 16 0 1 0 0 32z"/></svg>
